64x64/places/folder-breeze-owncloud.svg

<svg xmlns="http://www.w3.org/2000/svg" width="64" height="64" version="1">
 <rect style="opacity:0.2" width="56" height="36" x="4" y="22" rx="2.8" ry="2.8"/>
 <path style="fill:#147eb8" d="M 4,46.2 C 4,47.751 5.2488,49 6.8,49 H 57.2 C 58.751,49 60,47.751 60,46.2 V 15.8 C 60,14.249 58.751,13 57.2,13 H 32 C 27.8,13 26.4,7 22.2,7 H 6.8 C 5.2488,7 4,8.2488 4,9.8"/>
 <rect style="opacity:0.2" width="56" height="36" x="4" y="20" rx="2.8" ry="2.8"/>
 <rect style="fill:#f4f4f7" width="48" height="22" x="8" y="16" rx="2.8" ry="2.8"/>
 <rect style="fill:#57b8ec" width="56" height="36" x="4" y="21" rx="2.8" ry="2.8"/>
 <path style="opacity:0.1;fill:#f4f4f7" d="M 6.8008,7 C 5.2496,7 4,8.2496 4,9.8008 V 10.801 C 4,9.2496 5.2496,8 6.8008,8 H 22.199 C 26.399,8 27.8,14 32,14 H 57.199 C 58.75,14 60,15.25 60,16.801 V 15.801 C 60,14.25 58.75,13 57.199,13 H 32 C 27.8,13 26.399,7 22.199,7 Z"/>
 <g>
  <circle style="fill:#106796;stroke:#57b8ec;stroke-linecap:round;stroke-linejoin:round" cx="36" cy="37" r="4.5"/>
  <circle style="fill:#106796;stroke:#57b8ec;stroke-linecap:round;stroke-linejoin:round" cx="45" cy="45" r="2.5"/>
  <circle style="fill:#106796;stroke:#57b8ec;stroke-linecap:round;stroke-linejoin:round" cx="39.5" cy="42.5" r="5"/>
  <circle style="fill:#106796;stroke:#57b8ec;stroke-linecap:round;stroke-linejoin:round" cx="21" cy="43" r="4.5"/>
  <circle style="fill:#106796;stroke:#57b8ec;stroke-linecap:round;stroke-linejoin:round" cx="25.5" cy="33.5" r="3"/>
  <circle style="fill:#106796;stroke:#57b8ec;stroke-linecap:round;stroke-linejoin:round" cx="26" cy="39" r="5.5"/>
  <circle style="fill:#106796;stroke:#57b8ec;stroke-linecap:round;stroke-linejoin:round" cx="25.5" cy="45" r="2.5"/>
  <circle style="fill:#106796;stroke:#57b8ec;stroke-linecap:round;stroke-linejoin:round" cx="30.5" cy="34.5" r="5"/>
  <circle style="fill:#106796;stroke:#57b8ec;stroke-linecap:round;stroke-linejoin:round" cx="32" cy="41" r="6.5"/>
 </g>
</svg>

<svg xmlns="http://www.w3.org/2000/svg" width="64" height="64" version="1"><rect style="opacity:.2" width="56" height="36" x="4" y="22" rx="2.8" ry="2.8"/><path style="fill:#147eb8" d="M4 46.2C4 47.751 5.249 49 6.8 49h50.4c1.551 0 2.8-1.249 2.8-2.8V15.8c0-1.551-1.249-2.8-2.8-2.8H32c-4.2 0-5.6-6-9.8-6H6.8A2.794 2.794 0 0 0 4 9.8"/><rect style="opacity:.2" width="56" height="36" x="4" y="20" rx="2.8" ry="2.8"/><rect style="fill:#f4f4f7" width="48" height="22" x="8" y="16" rx="2.8" ry="2.8"/><rect style="fill:#57b8ec" width="56" height="36" x="4" y="21" rx="2.8" ry="2.8"/><path style="opacity:.1;fill:#f4f4f7" d="M6.8 7C5.25 7 4 8.25 4 9.8v1.001A2.795 2.795 0 0 1 6.8 8H22.2c4.2 0 5.601 6 9.801 6h25.199A2.796 2.796 0 0 1 60 16.801v-1A2.796 2.796 0 0 0 57.199 13H32c-4.2 0-5.601-6-9.801-6z"/><circle style="fill:#106796;stroke:#57b8ec;stroke-linecap:round;stroke-linejoin:round" cx="36" cy="37" r="4.5"/><circle style="fill:#106796;stroke:#57b8ec;stroke-linecap:round;stroke-linejoin:round" cx="45" cy="45" r="2.5"/><circle style="fill:#106796;stroke:#57b8ec;stroke-linecap:round;stroke-linejoin:round" cx="39.5" cy="42.5" r="5"/><circle style="fill:#106796;stroke:#57b8ec;stroke-linecap:round;stroke-linejoin:round" cx="21" cy="43" r="4.5"/><circle style="fill:#106796;stroke:#57b8ec;stroke-linecap:round;stroke-linejoin:round" cx="25.5" cy="33.5" r="3"/><circle style="fill:#106796;stroke:#57b8ec;stroke-linecap:round;stroke-linejoin:round" cx="26" cy="39" r="5.5"/><circle style="fill:#106796;stroke:#57b8ec;stroke-linecap:round;stroke-linejoin:round" cx="25.5" cy="45" r="2.5"/><circle style="fill:#106796;stroke:#57b8ec;stroke-linecap:round;stroke-linejoin:round" cx="30.5" cy="34.5" r="5"/><circle style="fill:#106796;stroke:#57b8ec;stroke-linecap:round;stroke-linejoin:round" cx="32" cy="41" r="6.5"/></svg>
